src/3-context/announcement.svg

<svg width="1300" height="1000" viewBox="0 0 1300 1000" fill="none" xmlns="http://www.w3.org/2000/svg"><path d="M307.44 163.908a4.943 4.943 0 0 1 4.943 4.943v28.789a3.36 3.36 0 0 1-6.72 0v-27.194h-.217l-4.681 2.99c-1.728 1.105-3.994-.137-3.994-2.188 0-.883.449-1.706 1.193-2.184l6.805-4.372a4.941 4.941 0 0 1 2.671-.784Z" fill="#000"/><path fill-rule="evenodd" clip-rule="evenodd" d="M325.272 194.117a4.141 4.141 0 0 1-3.5-6.357l13.624-21.526a5.001 5.001 0 0 1 3.501-2.273v-.053h2.427v.119a5.001 5.001 0 0 1 3.911 4.881v19.685h1.984a2.763 2.763 0 0 1 0 5.524h-1.984v3.677a3.205 3.205 0 0 1-6.411 0v-3.677h-13.552Zm13.335-22.602h.29v17.078h-10.885v-.29l10.595-16.788Z" fill="#000"/><path fill-rule="evenodd" clip-rule="evenodd" d="M283 134a5 5 0 0 0-5 5v70a5 5 0 0 0 5 5h80a5 5 0 0 0 5-5v-70a5 5 0 0 0-5-5h-15v-3.5a3.5 3.5 0 1 0-7 0v3.5h-36v-3.5a3.5 3.5 0 1 0-7 0v3.5h-15Zm78 17v-10h-76v10h76Zm-76 7v49h76v-49h-76Zm-153 81a5 5 0 0 1 5-5h40a5 5 0 0 1 5 5v30a5 5 0 0 1-5 5h-40a5 5 0 0 1-5-5v-30Zm7 2h36v26h-36v-26Zm89-16.5a3.5 3.5 0 1 1 7 0v9.5h10a5 5 0 0 1 5 5v30a5 5 0 0 1-5 5h-40a5 5 0 0 1-5-5v-30a5 5 0 0 1 5-5h10v-4.5a3.5 3.5 0 1 1 7 0v4.5h6v-9.5ZM207 241h36v26h-36v-26Zm71-2a5 5 0 0 1 5-5h80a5 5 0 0 1 5 5v30a5 5 0 0 1-5 5h-80a5 5 0 0 1-5-5v-30Zm7 2h76v26h-76v-26Zm-148-52a5 5 0 0 0-5 5v15a5 5 0 0 0 5 5h110a5 5 0 0 0 5-5v-15a5 5 0 0 0-5-5h-2v-25a5 5 0 0 0-5-5h-25v-27a5 5 0 0 0-5-5h-66a5 5 0 0 0-5 5v57h-2Zm39 0h62v-23h-62v23Zm-2-30h34v-25h-62v55h23v-25a5 5 0 0 1 5-5Zm71 37H139v11h106v-11Z" fill="#000"/><path fill-rule="evenodd" clip-rule="evenodd" d="M281 100h109c5.523 0 10 4.477 10 10v180c0 5.523-4.477 10-10 10H110c-5.523 0-10-4.477-10-10V110c0-5.523 4.477-10 10-10h99l30.678-25.1a8.406 8.406 0 0 1 10.644 0L281 100Zm-37.249-19L220 100h50l-23.751-19a1.999 1.999 0 0 0-2.498 0ZM112 107a5 5 0 0 0-5 5v176a5 5 0 0 0 5 5h276a5 5 0 0 0 5-5V112a5 5 0 0 0-5-5H112Z" fill="#000"/></svg>

<svg width="1300" height="1000" viewBox="0 0 1300 1000" fill="none" xmlns="http://www.w3.org/2000/svg">
<path d="M307.44 163.908C310.17 163.908 312.383 166.121 312.383 168.851V197.64C312.383 199.495 310.878 200.999 309.023 200.999C307.168 200.999 305.663 199.495 305.663 197.64V170.446H305.446L300.765 173.436C299.037 174.541 296.771 173.299 296.771 171.248C296.771 170.365 297.22 169.542 297.964 169.064L304.769 164.692C305.566 164.18 306.493 163.908 307.44 163.908Z" fill="black"/>
<path fill-rule="evenodd" clip-rule="evenodd" d="M325.272 194.117C322.984 194.117 321.13 192.263 321.13 189.975C321.13 189.191 321.353 188.423 321.772 187.76L335.396 166.234C336.182 164.993 337.466 164.17 338.897 163.961V163.908H341.324V164.027C343.562 164.524 345.235 166.52 345.235 168.908V188.593H347.219C348.744 188.593 349.981 189.83 349.981 191.355C349.981 192.88 348.744 194.117 347.219 194.117H345.235V197.794C345.235 199.564 343.8 200.999 342.03 200.999C340.259 200.999 338.824 199.564 338.824 197.794V194.117H325.272ZM338.607 171.515H338.897V188.593H328.012V188.303L338.607 171.515Z" fill="black"/>
<path fill-rule="evenodd" clip-rule="evenodd" d="M283 134C280.239 134 278 136.239 278 139V209C278 211.761 280.239 214 283 214H363C365.761 214 368 211.761 368 209V139C368 136.239 365.761 134 363 134H348V130.5C348 128.567 346.433 127 344.5 127C342.567 127 341 128.567 341 130.5V134H305V130.5C305 128.567 303.433 127 301.5 127C299.567 127 298 128.567 298 130.5V134H283ZM361 151V141H285V151H361ZM285 158V207H361V158H285Z" fill="black"/>
<path fill-rule="evenodd" clip-rule="evenodd" d="M132 239C132 236.239 134.239 234 137 234H177C179.761 234 182 236.239 182 239V269C182 271.761 179.761 274 177 274H137C134.239 274 132 271.761 132 269V239ZM139 241H175V267H139V241Z" fill="black"/>
<path fill-rule="evenodd" clip-rule="evenodd" d="M228 224.5C228 222.567 229.567 221 231.5 221C233.433 221 235 222.567 235 224.5V234H245C247.761 234 250 236.239 250 239V269C250 271.761 247.761 274 245 274H205C202.239 274 200 271.761 200 269V239C200 236.239 202.239 234 205 234H215V229.5C215 227.567 216.567 226 218.5 226C220.433 226 222 227.567 222 229.5V234H228V224.5ZM207 241H243V267H207V241Z" fill="black"/>
<path fill-rule="evenodd" clip-rule="evenodd" d="M278 239C278 236.239 280.239 234 283 234H363C365.761 234 368 236.239 368 239V269C368 271.761 365.761 274 363 274H283C280.239 274 278 271.761 278 269V239ZM285 241H361V267H285V241Z" fill="black"/>
<path fill-rule="evenodd" clip-rule="evenodd" d="M137 189C134.239 189 132 191.239 132 194V209C132 211.761 134.239 214 137 214H247C249.761 214 252 211.761 252 209V194C252 191.239 249.761 189 247 189H245V164C245 161.239 242.761 159 240 159H215V132C215 129.239 212.761 127 210 127H144C141.239 127 139 129.239 139 132V189H137ZM176 189H238V166H176V189ZM174 159H208V134H146V189H169V164C169 161.239 171.239 159 174 159ZM245 196H139V207H245V196Z" fill="black"/>
<path fill-rule="evenodd" clip-rule="evenodd" d="M281 100H390C395.523 100 400 104.477 400 110V290C400 295.523 395.523 300 390 300H110C104.477 300 100 295.523 100 290V110C100 104.477 104.477 100 110 100H209L239.678 74.8997C241.18 73.6712 243.06 73 245 73C246.94 73 248.82 73.6712 250.322 74.8997L281 100ZM243.751 80.9995L220 100H270L246.249 80.9995C245.519 80.4152 244.481 80.4152 243.751 80.9995ZM112 107C109.239 107 107 109.239 107 112V288C107 290.761 109.239 293 112 293H388C390.761 293 393 290.761 393 288V112C393 109.239 390.761 107 388 107H112Z" fill="black"/>
</svg>
